src/assets/icons/remotes/hdfs.svg

<svg width="24" height="24" viewBox="0 0 24 24" fill="currentColor" xmlns="http://www.w3.org/2000/svg">
    <path
        d="M10.7054 4.08817C9.63875 4.33955 8.60234 5.24452 8.23 6.25004C7.94828 6.98407 7.94828 8.00969 8.23 8.75379C8.6627 9.92019 9.91043 10.8553 11.1984 10.9861C11.6412 11.0363 11.7921 11.0966 11.9129 11.2777C12.0538 11.4989 12.0538 11.5391 11.9028 11.7704C11.772 11.9714 11.6513 12.0217 11.3091 12.0217C10.3129 12.0217 9.08531 11.4687 8.28035 10.6643C7.04266 9.43754 6.66027 7.60749 7.26402 5.88805C7.34453 5.64673 7.39484 5.43557 7.37473 5.41546C7.30426 5.34507 6.49926 5.7875 5.83516 6.25004C4.66791 7.08462 3.75223 8.32141 3.28936 9.70902C3.12836 10.1716 3.03779 10.7749 2.97742 11.7905C2.87679 13.4998 2.79629 13.8518 2.32336 14.5355C1.90074 15.1589 1.89067 15.5612 2.30323 15.8729C2.68561 16.1544 3.01767 16.0338 3.46042 15.4405C3.67173 15.169 3.87298 14.9478 3.92329 14.9478C3.96354 14.9377 3.99373 15.9533 3.99373 17.1901C3.99373 19.4324 3.99373 19.4525 4.23523 19.7341L4.47672 20.0156H5.9559H7.43508L7.6766 19.7341C7.90801 19.4626 7.91809 19.3821 7.91809 18.1454V16.8482L8.35078 16.9186C8.89414 17.0192 10.0614 17.0192 10.6148 16.9186L11.0375 16.8482V18.1454C11.0375 19.3821 11.0475 19.4626 11.2789 19.7341L11.5204 20.0156H12.9996H14.4788L14.7203 19.7341C14.9618 19.4525 14.9618 19.4425 14.9618 17.0896C14.9618 15.7924 14.992 14.7366 15.0222 14.7366C15.0524 14.7366 15.2838 14.9176 15.5354 15.1388C15.7869 15.3601 16.2196 15.6215 16.5114 15.7321L17.0246 15.9232L17.085 16.617C17.2057 18.256 18.5843 19.3218 20.1339 18.9699C21.5326 18.6582 22.4583 17.18 21.764 16.3756C21.5628 16.1444 21.442 16.0941 21.0496 16.0941C20.5666 16.0941 20.5867 16.074 19.9729 16.8382C19.6006 17.2907 19.0572 17.0091 19.0472 16.3555C19.0371 15.9232 19.0371 15.9232 19.5503 15.7321C20.1943 15.4908 20.9993 14.807 20.9993 14.4953C20.9993 14.2238 20.8182 14.0328 20.5766 14.0328C20.476 14.0328 20.1037 14.2339 19.7515 14.4752C19.2484 14.8171 18.9666 14.9377 18.544 14.988C17.407 15.1288 16.5517 14.8372 15.8372 14.0428C15.4146 13.5702 15.4045 13.5501 15.6259 13.2485C15.8473 12.9267 16.1291 12.977 16.6422 13.4295C17.2862 13.9925 17.8598 14.1333 18.6145 13.9221L18.9868 13.8216V11.5391C18.9868 9.01523 18.9264 8.63312 18.383 7.6075C17.9604 6.81313 16.9843 5.89811 16.1391 5.4959C15.7567 5.31491 15.163 5.13391 14.7002 5.06353C14.2574 5.0032 13.8147 4.87248 13.704 4.78198C12.8889 4.10828 11.7418 3.84685 10.7054 4.08817ZM16.934 10.2621C17.085 10.4933 17.085 10.5336 16.934 10.7648C16.8334 10.9157 16.6724 11.0162 16.5215 11.0162C16.3705 11.0162 16.2095 10.9157 16.1089 10.7648C15.958 10.5336 15.958 10.4933 16.1089 10.2621C16.2095 10.1113 16.3705 10.0107 16.5215 10.0107C16.6724 10.0107 16.8334 10.1113 16.934 10.2621Z" />
</svg>

<svg xmlns="http://www.w3.org/2000/svg" width="24" height="24" fill="currentColor" viewBox="0 0 24 24"><path d="M10.705 4.088C9.64 4.34 8.602 5.245 8.23 6.25c-.282.734-.282 1.76 0 2.504.433 1.166 1.68 2.101 2.968 2.232.443.05.594.11.715.292.14.22.14.261-.01.492-.131.201-.252.252-.594.252-.996 0-2.224-.553-3.029-1.358-1.237-1.226-1.62-3.057-1.016-4.776.08-.241.13-.452.11-.473-.07-.07-.875.372-1.539.835A7.04 7.04 0 0 0 3.29 9.709c-.16.463-.251 1.066-.312 2.082-.1 1.709-.18 2.06-.654 2.745-.422.623-.432 1.025-.02 1.337.383.281.715.16 1.157-.432.212-.272.413-.493.463-.493.04-.01.07 1.005.07 2.242 0 2.242 0 2.262.242 2.544l.242.282h2.959l.24-.282c.232-.271.242-.352.242-1.589v-1.297l.433.07c.543.101 1.71.101 2.264 0l.422-.07v1.297c0 1.237.01 1.318.242 1.59l.241.28h2.959l.241-.28c.242-.282.242-.293.242-2.645 0-1.298.03-2.353.06-2.353s.262.18.513.402c.252.221.685.482.976.593l.514.191.06.694c.12 1.639 1.5 2.705 3.049 2.353 1.399-.312 2.324-1.79 1.63-2.594-.201-.232-.322-.282-.714-.282-.483 0-.463-.02-1.077.744-.372.453-.916.171-.926-.483-.01-.432-.01-.432.503-.623.644-.241 1.45-.925 1.45-1.237 0-.271-.182-.462-.423-.462-.101 0-.473.2-.826.442-.503.342-.784.463-1.207.513-1.137.14-1.992-.15-2.707-.945-.422-.473-.432-.493-.211-.794.221-.322.503-.272 1.016.18.644.563 1.218.704 1.973.493l.372-.1v-2.283c0-2.524-.06-2.906-.604-3.931-.423-.795-1.399-1.71-2.244-2.112a6 6 0 0 0-1.439-.432c-.443-.06-.885-.192-.996-.282a3.53 3.53 0 0 0-2.999-.694m6.229 6.174c.151.231.151.272 0 .503-.1.15-.262.251-.413.251s-.312-.1-.412-.251c-.151-.231-.151-.272 0-.503.1-.15.261-.251.412-.251s.312.1.413.251"/></svg>
